apps/common/mobile/resources/icons/ios/icon-link.svg

<svg width="24" height="24" viewBox="0 0 24 24" xmlns="http://www.w3.org/2000/svg">
<path d="M12 1.875C17.5918 1.87516 22.1258 6.40819 22.126 12C22.1258 17.5918 17.5918 22.1258 12 22.126C6.40819 22.1258 1.87516 17.5918 1.875 12C1.87516 6.40819 6.40819 1.87516 12 1.875ZM12 3.375C7.23662 3.37516 3.37516 7.23662 3.375 12C3.37516 16.7634 7.23662 20.6258 12 20.626C16.7634 20.6258 20.6258 16.7634 20.626 12C20.6258 7.23662 16.7634 3.37516 12 3.375Z" fill="#444444"/>
<path d="M7.05908 15.4678C7.05908 12.4353 10.1566 9.28021 13.2144 8.89258L13.2144 7.5127C13.2144 7.31051 13.3372 7.1282 13.5239 7.05078C13.7107 6.97359 13.9259 7.01627 14.0688 7.15918L17.4966 10.5869C17.5902 10.6807 17.6431 10.8089 17.6431 10.9414C17.6428 11.0737 17.5902 11.2013 17.4966 11.2949L14.0688 14.7227C13.926 14.8654 13.7106 14.9081 13.5239 14.8311C13.3372 14.7537 13.2145 14.5712 13.2144 14.3691L13.2144 12.5713C10.8974 12.7618 8.38725 14.0171 8.36377 16.5713L8.36377 16.8525C8.36346 17.2118 8.07128 17.5035 7.71143 17.5039C7.35111 17.5039 7.05749 17.2123 7.05713 16.8525C7.05713 16.2272 7.05908 16.0929 7.05908 15.4678Z" fill="#444444"/>
</svg>

<svg xmlns="http://www.w3.org/2000/svg" width="24" height="24" fill="none" viewBox="0 0 24 24">
  <g class="icon-link">
    <path stroke="#444" stroke-linecap="round" stroke-linejoin="round" stroke-miterlimit="16" stroke-width="1.5" d="M21.375 12a9.375 9.375 0 1 1-18.75 0 9.375 9.375 0 0 1 18.75 0Z" class="icon-stroke-gray-primary"/>
    <path fill="#444" fill-rule="evenodd" d="M13.523 7.051a.5.5 0 0 1 .545.109l3.43 3.427a.504.504 0 0 1 0 .708l-3.429 3.428a.501.501 0 0 1-.854-.354v-1.797c-2.317.19-4.828 1.445-4.852 4v.28a.653.653 0 0 1-1.306 0l.002-1.384c0-3.033 3.098-6.188 6.156-6.575v-1.38a.5.5 0 0 1 .308-.462Z" class="icon-fill-gray-primary" clip-rule="evenodd"/>
  </g>
</svg>
